static/img/biostarair-logo.svg

<svg width="263" height="40" viewBox="0 0 263 40" fill="none" xmlns="http://www.w3.org/2000/svg">
<path d="M31.2071 29.5537C31.2071 35.6507 26.4925 39.2048 17.4535 39.2048H0V3.6488H16.4544C24.8845 3.6488 29.3963 7.25021 29.3963 12.8893C29.3963 16.5381 27.5853 19.2391 24.8845 20.7081C28.6468 21.9243 31.2071 24.9255 31.2071 29.5379V29.5537ZM6.52556 8.82977V18.6231H15.7519C20.2635 18.6231 22.8238 16.9961 22.8238 13.7422C22.8238 10.4883 20.2635 8.81398 15.7519 8.81398H6.52556V8.82977ZM24.6347 28.8902C24.6347 25.3362 21.9808 23.7567 17.0633 23.7567H6.52556V34.008H17.0633C21.9808 34.008 24.6347 32.4284 24.6347 28.8744V28.8902Z" fill="#222222"/>
<path d="M36.0777 3.80675C36.0777 1.67434 37.7793 0 40.0898 0C42.4003 0 44.1019 1.57957 44.1019 3.64879C44.1019 5.87598 42.4472 7.6135 40.0898 7.6135C37.7325 7.6135 36.0777 5.93916 36.0777 3.80675ZM36.9363 12.0837H43.2121V39.189H36.9363V12.0837Z" fill="#222222"/>
<path d="M48.1931 25.6363C48.1931 17.5174 54.2191 11.7836 62.4463 11.7836C70.6735 11.7836 76.7463 17.5174 76.7463 25.6363C76.7463 33.7553 70.7827 39.5523 62.4463 39.5523C54.1098 39.5523 48.1931 33.7711 48.1931 25.6363ZM70.4236 25.6363C70.4236 20.4554 67.0047 17.1541 62.4463 17.1541C57.8878 17.1541 54.5157 20.4554 54.5157 25.6363C54.5157 30.8173 57.9345 34.1187 62.4463 34.1187C66.958 34.1187 70.4236 30.8173 70.4236 25.6363Z" fill="#222222"/>
<path d="M79.5548 35.4296L81.8185 30.296C84.6285 32.5864 89.0934 34.2133 93.4021 34.2133C98.866 34.2133 101.176 32.2388 101.176 29.601C101.176 21.9401 80.3042 26.9632 80.3042 13.758C80.3042 8.02417 84.8159 3.14331 94.4481 3.14331C98.6627 3.14331 103.081 4.2648 106.141 6.28665L104.08 11.4202C100.927 9.54054 97.4606 8.6244 94.4013 8.6244C88.9841 8.6244 86.7673 10.7568 86.7673 13.4421C86.7673 21.0082 107.593 16.0799 107.593 29.1271C107.593 34.8136 103.035 39.6944 93.3866 39.6944C87.9225 39.6944 82.443 37.9727 79.5392 35.4296H79.5548Z" fill="#222222"/>
<path d="M128.575 37.72C127.076 38.9362 124.813 39.5522 122.549 39.5522C116.679 39.5522 113.322 36.4089 113.322 30.4066V17.3594H108.905V12.289H113.322V6.09711H119.598V12.289H126.779V17.3594H119.598V30.2486C119.598 32.8865 120.909 34.3081 123.313 34.3081C124.625 34.3081 125.873 33.9448 126.826 33.1866L128.575 37.7041V37.72Z" fill="#222222"/>
<path d="M155.114 23.2987V39.189H149.197V35.8877C147.699 38.2255 144.779 39.5365 140.767 39.5365C134.647 39.5365 130.776 36.1405 130.776 31.4175C130.776 26.6947 133.789 23.346 141.923 23.346H148.854V22.9353C148.854 19.2233 146.653 17.0435 142.188 17.0435C139.175 17.0435 136.068 18.0545 134.054 19.7288L131.603 15.1165C134.46 12.8893 138.628 11.7678 142.937 11.7678C150.665 11.7678 155.129 15.4797 155.129 23.2987H155.114ZM148.854 30.7068V27.5634H142.375C138.113 27.5634 136.959 29.1904 136.959 31.1648C136.959 33.4552 138.862 34.9242 142.079 34.9242C145.295 34.9242 147.792 33.5026 148.854 30.7068Z" fill="#222222"/>
<path d="M177.439 11.7836V17.8175C176.893 17.7227 176.44 17.6596 175.987 17.6596C171.226 17.6596 168.213 20.5028 168.213 26.0313V39.1732H161.936V12.0837H167.9V16.0484C169.711 13.2052 172.974 11.7836 177.439 11.7836Z" fill="#222222"/>
<path d="M220.246 30.9752H202.684L199.218 39.2048H192.489L208.288 3.66455H214.704L230.565 39.2048H223.743L220.23 30.9752H220.246ZM218.076 25.7942L211.456 10.2671L204.885 25.7942H218.076Z" fill="url(#paint0_linear_505_55)"/>
<path d="M233.202 3.80675C233.202 1.67434 234.903 0 237.214 0C239.525 0 241.226 1.57957 241.226 3.64879C241.226 5.87598 239.571 7.6135 237.214 7.6135C234.857 7.6135 233.202 5.93916 233.202 3.80675ZM234.045 12.0837H240.32V39.189H234.045V12.0837Z" fill="url(#paint1_linear_505_55)"/>
<path d="M262.802 11.7836V17.8175C262.256 17.7227 261.803 17.6596 261.35 17.6596C256.589 17.6596 253.576 20.5028 253.576 26.0313V39.1732H247.3V12.0837H253.264V16.0484C255.074 13.2052 258.337 11.7836 262.802 11.7836Z" fill="url(#paint2_linear_505_55)"/>
<defs>
<linearGradient id="paint0_linear_505_55" x1="189.866" y1="13.7106" x2="234.273" y2="38.0519" gradientUnits="userSpaceOnUse">
<stop stop-color="#009DE6"/>
<stop offset="1" stop-color="#8C71F2"/>
</linearGradient>
<linearGradient id="paint1_linear_505_55" x1="198.311" y1="-1.69013" x2="242.717" y2="22.6511" gradientUnits="userSpaceOnUse">
<stop stop-color="#009DE6"/>
<stop offset="1" stop-color="#8C71F2"/>
</linearGradient>
<linearGradient id="paint2_linear_505_55" x1="200.278" y1="-5.25989" x2="244.67" y2="19.0815" gradientUnits="userSpaceOnUse">
<stop stop-color="#009DE6"/>
<stop offset="1" stop-color="#8C71F2"/>
</linearGradient>
</defs>
</svg>

<svg xmlns="http://www.w3.org/2000/svg" width="263" height="40" fill="none" viewBox="0 0 263 40"><path fill="#222" d="M31.207 29.554c0 6.097-4.715 9.65-13.754 9.65H0V3.65h16.454c8.43 0 12.942 3.601 12.942 9.24 0 3.65-1.81 6.35-4.512 7.82 3.763 1.215 6.323 4.217 6.323 8.829zM6.526 8.83v9.793h9.226c4.512 0 7.072-1.627 7.072-4.88 0-3.255-2.56-4.929-7.072-4.929H6.526zm18.109 20.06c0-3.554-2.654-5.133-7.572-5.133H6.526v10.251h10.537c4.918 0 7.572-1.58 7.572-5.134zM36.078 3.807C36.078 1.674 37.779 0 40.09 0s4.012 1.58 4.012 3.649c0 2.227-1.655 3.965-4.012 3.965-2.358 0-4.012-1.675-4.012-3.807m.858 8.277h6.276v27.105h-6.276zM48.193 25.636c0-8.119 6.026-13.852 14.253-13.852s14.3 5.733 14.3 13.852-5.963 13.916-14.3 13.916-14.253-5.78-14.253-13.916m22.23 0c0-5.18-3.418-8.482-7.977-8.482-4.558 0-7.93 3.301-7.93 8.482s3.419 8.483 7.93 8.483c4.512 0 7.978-3.302 7.978-8.483M79.555 35.43l2.263-5.134c2.81 2.29 7.275 3.917 11.584 3.917 5.464 0 7.774-1.974 7.774-4.612 0-7.66-20.872-2.638-20.872-15.843 0-5.734 4.512-10.615 14.144-10.615 4.215 0 8.633 1.122 11.693 3.144l-2.061 5.133c-3.153-1.88-6.62-2.796-9.679-2.796-5.417 0-7.634 2.133-7.634 4.818 0 7.566 20.826 2.638 20.826 15.685 0 5.687-4.558 10.567-14.206 10.567-5.465 0-10.944-1.721-13.848-4.264zM128.575 37.72c-1.499 1.216-3.762 1.832-6.026 1.832-5.87 0-9.227-3.143-9.227-9.145V17.359h-4.417v-5.07h4.417V6.097h6.276v6.192h7.181v5.07h-7.181v12.89c0 2.637 1.311 4.06 3.715 4.06 1.312 0 2.56-.364 3.513-1.122l1.749 4.517zM155.114 23.299v15.89h-5.917v-3.301c-1.498 2.337-4.418 3.648-8.43 3.648-6.12 0-9.991-3.395-9.991-8.119 0-4.722 3.013-8.071 11.147-8.071h6.931v-.41c0-3.713-2.201-5.892-6.666-5.892-3.013 0-6.12 1.01-8.134 2.685l-2.451-4.612c2.857-2.228 7.025-3.35 11.334-3.35 7.728 0 12.192 3.713 12.192 11.532zm-6.26 7.408v-3.144h-6.479c-4.262 0-5.416 1.627-5.416 3.602 0 2.29 1.903 3.76 5.12 3.76s5.713-1.422 6.775-4.218M177.439 11.784v6.033c-.546-.094-.999-.157-1.452-.157-4.761 0-7.774 2.843-7.774 8.371v13.142h-6.277v-27.09h5.964v3.965c1.811-2.843 5.074-4.264 9.539-4.264"/><path fill="url(#a)" d="M220.246 30.975h-17.562l-3.466 8.23h-6.729l15.799-35.54h6.416l15.861 35.54h-6.822l-3.513-8.23zm-2.17-5.18-6.62-15.528-6.571 15.527z"/><path fill="url(#b)" d="M233.202 3.807c0-2.133 1.701-3.807 4.012-3.807s4.012 1.58 4.012 3.649c0 2.227-1.655 3.965-4.012 3.965s-4.012-1.675-4.012-3.807m.843 8.277h6.275v27.105h-6.275z"/><path fill="url(#c)" d="M262.802 11.784v6.033c-.546-.094-.999-.157-1.452-.157-4.761 0-7.774 2.843-7.774 8.371v13.142H247.3v-27.09h5.964v3.965c1.81-2.843 5.073-4.264 9.538-4.264"/><defs><linearGradient id="a" x1="189.866" x2="234.273" y1="13.711" y2="38.052" gradientUnits="userSpaceOnUse"><stop stop-color="#009de6"/><stop offset="1" stop-color="#8c71f2"/></linearGradient><linearGradient id="b" x1="198.311" x2="242.717" y1="-1.69" y2="22.651" gradientUnits="userSpaceOnUse"><stop stop-color="#009de6"/><stop offset="1" stop-color="#8c71f2"/></linearGradient><linearGradient id="c" x1="200.278" x2="244.67" y1="-5.26" y2="19.081" gradientUnits="userSpaceOnUse"><stop stop-color="#009de6"/><stop offset="1" stop-color="#8c71f2"/></linearGradient></defs></svg>
